label-multiple.svg

<svg fill="currentColor" viewBox="0 0 24 24"><path d="M4 19h9l-2 2H4c-.5 0-1.03-.21-1.41-.59S2 19.5 2 19V9h2zM17.63 5.84C17.27 5.33 16.67 5 16 5H8c-1.1 0-2 .9-2 2v8c0 1.1.9 2 2 2h8c.67 0 1.27-.34 1.63-.85L22 11z"/></svg>

<svg  viewBox="0 0 24 24" fill="currentColor"><path  d="M4 19H13L11 21H4C3.5 21 2.97 20.79 2.59 20.41C2.21 20.03 2 19.5 2 19V9H4V19M17.63 5.84C17.27 5.33 16.67 5 16 5H8C6.9 5 6 5.9 6 7V15C6 16.1 6.9 17 8 17H16C16.67 17 17.27 16.66 17.63 16.15L22 11L17.63 5.84Z"/></svg>
